svg-my/1358A.svg

<?xml version="1.0" encoding="UTF-8" standalone="no"?>
<svg
   width="1100"
   height="1000"
   version="1.1"
   id="svg1"
   sodipodi:docname="1358A.svg"
   inkscape:version="1.4.2 (f4327f4, 2025-05-13)"
   xmlns:inkscape="http://www.inkscape.org/namespaces/inkscape"
   xmlns:sodipodi="http://sodipodi.sourceforge.net/DTD/sodipodi-0.dtd"
   xmlns="http://www.w3.org/2000/svg"
   xmlns:svg="http://www.w3.org/2000/svg">
  <defs
     id="defs1" />
  <sodipodi:namedview
     id="namedview1"
     pagecolor="#ffffff"
     bordercolor="#666666"
     borderopacity="1.0"
     inkscape:showpageshadow="2"
     inkscape:pageopacity="0.0"
     inkscape:pagecheckerboard="0"
     inkscape:deskcolor="#d1d1d1"
     inkscape:zoom="0.37749999"
     inkscape:cx="377.48346"
     inkscape:cy="54.304638"
     inkscape:window-width="1680"
     inkscape:window-height="998"
     inkscape:window-x="-8"
     inkscape:window-y="-8"
     inkscape:window-maximized="1"
     inkscape:current-layer="svg1"
     showguides="true">
    <sodipodi:guide
       position="136.73853,561.68745"
       orientation="1,0"
       id="guide1"
       inkscape:locked="false" />
    <sodipodi:guide
       position="0,1000"
       orientation="0,-1"
       id="guide2"
       inkscape:locked="false" />
    <sodipodi:guide
       position="0,0"
       orientation="0,-1"
       id="guide3"
       inkscape:locked="false" />
  </sodipodi:namedview>
  <path
     id="path13"
     style="fill:#000000;stroke:none;stroke-width:1"
     d="M 497.63477,0.1875 C 485.32779,-0.4107556 472.67819,0.40095979 459.6875,2.6230469 433.70613,7.0672208 416.27116,28.77403 407.38281,67.746094 c -6.15349,8.20468 -12.64913,19.829245 -19.48633,34.871096 -4.10234,8.88835 -4.10234,14.01536 0,15.38281 4.10231,1.36745 7.17929,3.07776 9.23047,5.12891 -5.98617,4.48968 -2.94817,8.20507 2.05274,8.20507 1.36741,0 1.02381,1.02502 -1.02735,3.07618 -2.05115,2.05115 -1.70755,3.7595 1.02735,5.12695 2.73486,1.36745 4.44321,5.64125 5.12695,12.82031 0.68371,7.17907 3.58888,10.93942 8.7168,11.28125 5.12788,0.34188 13.84536,0.17199 26.15234,-0.51172 l 3.07813,16.40821 c -21.12181,3.20254 -40.31893,7.47296 -65.63868,19.48632 -17.34744,8.23077 -28.51174,24.28926 -33.84375,46.1504 -16.40928,54.69763 -27.00692,97.77348 -31.79296,129.2246 -31.45113,4.10234 -73.15835,10.25435 -125.1211,18.45899 -10.68343,-5.22361 -22.30112,-8.76574 -34.52148,-10.81055 l -0.002,-34.40625 c -0.001,-20.4888 -1.22414,-77.85547 -75.132808,-77.85547 h -9.5625 L 103.81836,232.19922 C 73.887084,212.165 42.366825,204.13662 6.3769531,203.43359 c -25.9052241,0.0794 -121.4882831,5.30011 -121.4882831,78.03907 0,72.98572 96.289554,77.99086 121.7031269,78.04101 37.4458971,0.78017 66.1303451,-10.07839 97.2265631,-28.76953 L 66.638672,293.16211 h 9.5625 c 29.794208,0 45.906368,13.04511 45.908208,54.47656 l 0.002,32.26172 c -8.71132,0.10546 -17.57948,0.82467 -26.503908,2.09961 -1.796129,11.37533 1.533488,18.01732 10.421878,19.38477 1.14451,21.17327 6.29224,38.36175 16.08398,43.12695 l 0.0117,310.13281 -55.878906,-51.40039 -15.828125,17.20703 61.398441,56.47852 c -29.130126,11.27194 -49.595707,41.71207 -49.595707,76.51562 v 11.68946 H 211.25781 v -11.68946 c 0,-34.80442 -20.4683,-65.24437 -49.59961,-76.51562 l 61.39844,-56.47852 -15.83008,-17.20703 -55.87695,51.40039 -0.0117,-313.39258 c 7.48544,-3.10872 14.57111,-7.70813 20.16211,-13.52539 42.39067,-2.73486 74.52523,-2.73486 96.4043,0 21.87904,2.7349 48.42719,-2.31877 72.35742,-10.52344 27.96697,-62.59275 42.56242,-110.22236 51.07422,-147.52343 23.98082,53.59685 28.96652,118.07664 29.74023,176.26758 -13.14943,0.77347 -21.46654,4.44871 -24.94726,11.02343 -3.48069,6.57472 -1.73875,13.7299 5.22265,21.46485 l -26.10742,42.92773 h 23.78516 c -11.60241,23.59162 -33.45267,102.29453 -65.55274,236.10938 -18.95067,98.23398 -39.0609,153.9248 -60.33203,167.07422 -21.27116,12.76268 -47.1852,31.32824 -77.73828,55.69335 -23.59165,-2.32049 -37.51335,3.8661 -41.76758,18.5625 29.7796,4.25417 55.88503,2.70757 78.31641,-4.64062 22.4314,-7.34824 43.70356,-5.80158 63.81445,4.64062 28.61934,6.96137 39.44781,-1.74033 32.48633,-26.10546 -6.96145,-24.36513 6.18889,-61.68368 39.44922,-111.96094 32.87357,-50.66398 46.79338,-90.69502 41.76562,-120.08789 -1.93375,-17.40367 1.54812,-31.32734 10.44336,-41.76953 l 105.58203,-7.53907 c 0,18.95066 11.60364,35.77233 34.8086,50.46875 27.07235,28.61932 60.52633,77.35026 100.36133,146.19141 -8.50847,29.39289 -13.34364,50.27839 -14.50391,62.6543 -0.77349,11.9892 -10.63535,21.85099 -29.58594,29.58593 -13.14953,-0.77346 -20.49796,5.80168 -22.04492,19.72461 L 645,1001.125 c 26.29888,-40.60858 48.53959,-64.974 66.7168,-73.0957 31.32652,-20.49765 33.83783,-38.48122 7.53906,-53.95118 -25.9122,-15.08316 -44.28242,-45.83047 -55.11133,-92.24023 -10.82902,-46.79653 -31.90578,-79.67042 -63.23242,-98.62109 -2.70724,-11.21569 2.03035,-56.4647 -11.89258,-135.74805 6.9614,-58.78573 -2.12701,-103.84136 -27.26562,-135.16797 -6.17466,-54.23804 24.9777,-143.39079 28.24414,-149.43359 13.65776,34.63147 30.93171,76.3548 51.82226,124.17773 -5.21481,31.94089 -7.49558,76.26716 -6.84375,132.97852 0.65187,5.86668 -3.91161,16.29638 -13.68945,31.28906 -9.77779,14.99265 -13.03658,36.17878 -9.77734,63.55664 7.17041,1.30368 10.91822,-3.42219 11.24414,-14.17773 0.32595,-10.75561 3.42238,-19.39357 9.28906,-25.91211 4.56294,14.99264 5.54097,27.37841 2.93359,37.15625 -2.60743,9.77778 -7.4976,19.22955 -14.66797,28.35547 -3.25929,3.91116 -4.23533,7.65893 -2.93164,11.24414 1.30374,3.58519 5.54057,5.3789 12.71094,5.3789 14.99264,-16.94824 23.62864,-33.40849 25.91016,-49.3789 2.28151,-15.97042 4.72661,-41.88233 7.33398,-77.73438 13.03714,-62.57799 20.20804,-113.7486 21.51172,-153.51172 -13.42261,-44.94467 -29.33124,-90.39907 -44.6543,-135.21875 -9.65378,-39.58033 -40.09533,-51.07028 -53.33007,-52.30469 -39.63082,-3.69632 -60.85105,-9.2309 -63.58594,-17.43554 -2.7349,-8.20464 -4.7849,-17.43363 -6.15235,-27.68946 12.30695,-5.46978 24.44309,-15.38405 36.40821,-29.74218 11.60067,-13.92086 16.93397,-32.340981 16.00195,-55.259768 35.45922,36.755543 75.05829,86.463648 150.43083,105.712428 8.89677,2.16392 24.87968,1.26742 26.47151,-4.67337 1.59183,-5.94079 -13.22272,-12.59961 -21.84996,-14.79092 C 637.55354,122.48066 604.51692,56.17693 554.05078,17.269531 548.24713,12.79515 541.79647,8.6444096 533.5293,6.2128906 521.90604,2.7942924 509.94174,0.7857556 497.63477,0.1875 Z m -12.56446,15.767578 c 9.23023,0.170926 19.40127,1.537623 30.51172,4.101563 22.22091,5.127915 34.01537,17.94931 35.38281,38.460937 1.36745,21.195331 -5.12815,39.313616 -19.48632,54.355472 -14.3581,15.04184 -23.58907,19.48548 -27.69141,13.33203 -5.46975,-6.1535 -2.39277,-15.72611 9.23047,-28.716799 22.47067,-25.114206 9.33486,-59.978042 -31.79297,-37.945312 -7.52093,-6.837197 -24.27057,-11.624482 -50.25195,-14.359375 4.78604,-12.990688 14.52851,-21.70817 29.22851,-26.152344 7.35001,-2.222087 15.63891,-3.247098 24.86914,-3.076172 z m -59.22656,40.509766 c 20.51162,0 37.6049,4.787285 51.2793,14.359375 0,7.5209 3.07697,7.5209 9.23047,0 12.38557,-15.137933 32.20536,-8.005182 23.58789,12.820312 -4.10234,9.913924 -9.74285,18.287799 -16.92188,25.124999 -7.17907,6.83719 -8.54573,13.50463 -4.10156,20 4.44417,6.49536 7.34935,12.47752 8.7168,17.94727 4.1023,39.65577 19.82692,59.48437 47.17578,59.48437 27.34878,0 30.92956,27.92085 14.39062,78.35938 -19.57333,59.69246 -23.43072,76.13881 -20.1914,132.1875 -35.10777,14.62821 -75.03471,23.89593 -93.99024,26.49609 -2.84477,-77.79623 -9.66418,-141.85471 -20.71484,-167.30469 -11.28137,-25.98137 -19.65525,-44.09967 -25.125,-54.35547 -5.46979,-10.25583 4.10091,-15.38281 28.71484,-15.38281 25.29763,0 36.75045,-9.9143 34.35742,-29.74219 -2.39298,-19.82788 -11.45215,-27.69019 -27.17773,-23.58789 -15.72554,4.10234 -22.56287,-0.68498 -20.51172,-14.35937 9.57209,-6.15349 12.81895,-10.2555 9.74219,-12.30664 -3.07673,-2.0512 -8.71724,-3.41786 -16.92188,-4.10156 0.6837,-4.10234 -3.07661,-7.52096 -11.28125,-10.25586 6.1535,-17.776712 12.64914,-30.426331 19.48633,-37.947269 7.52094,-3.418599 15.2134,-3.418599 23.07617,0 7.86281,3.418598 15.89698,5.81224 24.10156,7.179687 v -6.154297 c -5.46971,0 -12.13716,-1.880193 -20,-5.640625 -7.86281,-3.760469 -15.89695,-3.93032 -24.10156,-0.511718 2.73486,-5.469787 5.12854,-9.573738 7.17969,-12.308594 z m 75.5,9.783203 c -12.23247,0.14396 -24.21871,19.453292 -21.14453,27.138672 -6.27963,3.767762 -9.7321,12.402831 -1.53711,15.382811 8.08995,2.94184 24.444,-16.143323 27.68945,-27.177733 0.77133,-2.622487 4.08165,-15.450702 -5.00781,-15.34375 z m -1.5293,6.755859 c 1.79477,0.08546 2.60649,1.238851 2.43555,3.460938 -0.34183,4.44421 -2.22204,8.718009 -5.64062,12.820312 -3.41864,4.10234 -6.49561,7.007516 -9.23047,8.716797 -2.7349,1.709315 -2.7349,0.512494 0,-3.589844 2.73486,-4.102303 2.73486,-5.469009 0,-4.101562 -2.7349,1.367409 -3.41823,0.170588 -2.05079,-3.589844 1.4835,-4.079551 6.00733,-14.120527 14.48633,-13.716797 z m -70.65429,2.5 c -3.49338,-0.128194 -6.65037,0.70328 -9.47071,2.498047 l -6.15234,6.154297 v 6.154297 l 3.07617,-2.052735 c 9.57205,5.469752 20.16973,5.469753 31.79297,0 l 12.30664,1.027344 -1.02539,-5.128906 h -10.25586 c -7.69187,-5.555217 -14.44918,-8.438686 -20.27148,-8.652344 z m -3.31641,4.550782 c -1.36741,2.051151 -1.02576,4.442877 1.02539,7.177734 -2.73489,-0.683705 -5.12853,-1.708725 -7.17969,-3.076172 0.68371,-2.051151 2.7357,-3.417858 6.1543,-4.101562 z m 9.23047,1.02539 10.25586,5.126953 c -4.10231,0.683706 -7.86266,1.36704 -11.28125,2.050781 2.73485,-2.734892 3.07654,-5.126583 1.02539,-7.177734 z m 44.09961,17.433594 c 4.1023,2.734888 5.12732,4.786848 3.07617,6.154298 -2.05115,1.36741 -3.58962,1.19561 -4.61523,-0.51367 -1.02558,-1.70932 -0.51213,-3.58948 1.53906,-5.640628 z m -62.86719,10.603518 c -0.85264,0.0313 -1.57745,1.34261 -1.23047,2.73047 0.56233,2.24948 -2.26695,5.69017 -6.15429,1.02539 -5.7091,-6.85092 -6.56134,-0.81609 -5.64063,1.02539 1.36745,-1.36746 3.07581,-0.68412 5.12695,2.05078 4.49347,5.9912 10.37733,0.84232 9.74414,-3.58984 -0.34501,-2.41501 -1.13923,-3.2681 -1.8457,-3.24219 z m -8.92383,16.0625 c 4.17997,-0.10367 9.73381,0.57872 13.33399,2.05078 l -15.38477,1.02539 c -4.32946,-1.44314 -1.93695,-2.97726 2.05078,-3.07617 z m 12.30664,4.10156 c -2.32749,4.07164 -7.09702,4.54011 -11.28125,5.12891 -4.68303,0.69526 -4.62298,-1.49327 -2.05078,-3.07618 z M 6.4472656,226.8125 c 20.8343264,-0.0639 41.6134504,3.79248 58.9316404,11 L 22.1875,281.47266 65.378906,325.13477 c -17.265619,7.18594 -37.970806,11.0389 -58.7421872,10.99804 -26.4102018,-0.0521 -98.3671828,-4.77131 -98.3671878,-54.66015 0,-49.65521 71.20342,-54.57743 98.1777346,-54.66016 z M 551.30859,441.88672 c 13.92293,17.40368 17.78154,52.86322 13.52735,105.07422 l 8.15234,110.15039 -187.30273,14.5039 54.53125,-196.66211 z M 136.73828,795.66211 c 24.29951,0 45.29573,19.31965 50.10156,46.0918 H 86.636719 c 4.80584,-26.77215 25.802051,-46.0918 50.101561,-46.0918 z"
     sodipodi:nodetypes="ssccscsssssccscccccscccscccscccccccccsccsccccccscccscccccccscscccccccccccccccccccscscscscscccsscscszsssssscscsccssccsssscssccssssscscccsccsccscssssssssssssccccccccscccccccccsscsssccsssccsccccsccccssccccccsccs" />
</svg>

<?xml version="1.0" encoding="UTF-8" standalone="no"?>
<svg
   width="1100"
   height="1000"
   version="1.1"
   id="svg1"
   sodipodi:docname="1358A.svg"
   inkscape:version="1.4.2 (f4327f4, 2025-05-13)"
   xmlns:inkscape="http://www.inkscape.org/namespaces/inkscape"
   xmlns:sodipodi="http://sodipodi.sourceforge.net/DTD/sodipodi-0.dtd"
   xmlns="http://www.w3.org/2000/svg"
   xmlns:svg="http://www.w3.org/2000/svg">
  <defs
     id="defs1" />
  <sodipodi:namedview
     id="namedview1"
     pagecolor="#ffffff"
     bordercolor="#666666"
     borderopacity="1.0"
     inkscape:showpageshadow="2"
     inkscape:pageopacity="0.0"
     inkscape:pagecheckerboard="0"
     inkscape:deskcolor="#d1d1d1"
     inkscape:zoom="0.2669328"
     inkscape:cx="488.88709"
     inkscape:cy="556.31979"
     inkscape:window-width="1680"
     inkscape:window-height="998"
     inkscape:window-x="-8"
     inkscape:window-y="-8"
     inkscape:window-maximized="1"
     inkscape:current-layer="svg1"
     showguides="true">
    <sodipodi:guide
       position="136.73853,561.68745"
       orientation="1,0"
       id="guide1"
       inkscape:locked="false" />
    <sodipodi:guide
       position="0,1000"
       orientation="0,-1"
       id="guide2"
       inkscape:locked="false" />
    <sodipodi:guide
       position="0,0"
       orientation="0,-1"
       id="guide3"
       inkscape:locked="false" />
  </sodipodi:namedview>
  <path
     id="path13"
     style="fill:#000000;stroke:none;stroke-width:1"
     d="M 497.63477 0.1875 C 485.32779 -0.4107556 472.67819 0.40095979 459.6875 2.6230469 C 433.70613 7.0672208 416.27116 28.77403 407.38281 67.746094 C 401.22932 75.950774 394.73368 87.575339 387.89648 102.61719 C 383.79414 111.50554 383.79414 116.63255 387.89648 118 C 391.99879 119.36745 395.07577 121.07776 397.12695 123.12891 C 391.14078 127.61859 394.17878 131.33398 399.17969 131.33398 C 400.5471 131.33398 400.2035 132.359 398.15234 134.41016 C 396.10119 136.46131 396.44479 138.16966 399.17969 139.53711 C 401.91455 140.90456 403.6229 145.17836 404.30664 152.35742 C 404.99035 159.53649 407.89552 163.29684 413.02344 163.63867 C 418.15132 163.98055 426.8688 163.81066 439.17578 163.12695 L 442.25391 179.53516 C 421.1321 182.7377 401.93498 187.00812 376.61523 199.02148 C 359.26779 207.25225 348.10349 223.31074 342.77148 245.17188 C 326.3622 299.86951 315.76456 342.94536 310.97852 374.39648 C 279.52739 378.49882 237.82017 384.65083 185.85742 392.85547 C 175.17399 387.63186 163.5563 384.08973 151.33594 382.04492 L 151.33398 347.63867 C 151.33298 327.14987 150.10984 269.7832 76.201172 269.7832 L 66.638672 269.7832 L 103.81836 232.19922 C 73.887084 212.165 42.366825 204.13662 6.3769531 203.43359 C -19.528271 203.51299 -115.11133 208.7337 -115.11133 281.47266 C -115.11133 354.45838 -18.821776 359.46352 6.5917969 359.51367 C 44.037694 360.29384 72.722142 349.43528 103.81836 330.74414 L 66.638672 293.16211 L 76.201172 293.16211 C 105.99538 293.16211 122.10754 306.20722 122.10938 347.63867 L 122.11133 379.90039 C 113.40001 380.00585 104.53185 380.72506 95.607422 382 C 93.811293 393.37533 97.14091 400.01732 106.0293 401.38477 C 107.17381 422.55804 112.32154 439.74652 122.11328 444.51172 L 122.125 754.64453 L 66.246094 703.24414 L 50.417969 720.45117 L 111.81641 776.92969 C 82.686284 788.20163 62.220703 818.64176 62.220703 853.44531 L 62.220703 865.13477 L 211.25781 865.13477 L 211.25781 853.44531 C 211.25781 818.64089 190.78951 788.20094 161.6582 776.92969 L 223.05664 720.45117 L 207.22656 703.24414 L 151.34961 754.64453 L 151.33789 441.25195 C 158.82333 438.14323 165.909 433.54382 171.5 427.72656 C 213.89067 424.9917 246.02523 424.9917 267.9043 427.72656 C 289.78334 430.46146 316.33149 425.40779 340.26172 417.20312 C 368.22869 354.61037 382.82414 306.98076 391.33594 269.67969 C 415.31676 323.27654 420.30246 387.75633 421.07617 445.94727 C 407.92674 446.72074 399.60963 450.39598 396.12891 456.9707 C 392.64822 463.54542 394.39016 470.7006 401.35156 478.43555 L 375.24414 521.36328 L 399.0293 521.36328 C 387.42689 544.9549 365.57663 623.65781 333.47656 757.47266 C 314.52589 855.70664 294.41566 911.39746 273.14453 924.54688 C 251.87337 937.30956 225.95933 955.87512 195.40625 980.24023 C 171.8146 977.91974 157.8929 984.10633 153.63867 998.80273 C 183.41827 1003.0569 209.5237 1001.5103 231.95508 994.16211 C 254.38648 986.81387 275.65864 988.36053 295.76953 998.80273 C 324.38887 1005.7641 335.21734 997.0624 328.25586 972.69727 C 321.29441 948.33214 334.44475 911.01359 367.70508 860.73633 C 400.57865 810.07235 414.49846 770.04131 409.4707 740.64844 C 407.53695 723.24477 411.01882 709.3211 419.91406 698.87891 L 525.49609 691.33984 C 525.49609 710.2905 537.09973 727.11217 560.30469 741.80859 C 587.37704 770.42791 620.83102 819.15885 660.66602 888 C 652.15755 917.39289 647.32238 938.27839 646.16211 950.6543 C 645.38862 962.6435 635.52676 972.50529 616.57617 980.24023 C 603.42664 979.46677 596.07821 986.04191 594.53125 999.96484 L 645 1001.125 C 671.29888 960.51642 693.53959 936.151 711.7168 928.0293 C 743.04332 907.53165 745.55463 889.54808 719.25586 874.07812 C 693.34366 858.99496 674.97344 828.24765 664.14453 781.83789 C 653.31551 735.04136 632.23875 702.16747 600.91211 683.2168 C 598.20487 672.00111 602.94246 626.7521 589.01953 547.46875 C 595.98093 488.68302 586.89252 443.62739 561.75391 412.30078 C 555.57925 358.06274 586.73161 268.90999 589.99805 262.86719 C 603.65581 297.49866 620.92976 339.22199 641.82031 387.04492 C 636.6055 418.98581 634.32473 463.31208 634.97656 520.02344 C 635.62843 525.89012 631.06495 536.31982 621.28711 551.3125 C 611.50932 566.30515 608.25053 587.49128 611.50977 614.86914 C 618.68018 616.17282 622.42799 611.44695 622.75391 600.69141 C 623.07986 589.9358 626.17629 581.29784 632.04297 574.7793 C 636.60591 589.77194 637.58394 602.15771 634.97656 611.93555 C 632.36913 621.71333 627.47896 631.1651 620.30859 640.29102 C 617.0493 644.20218 616.07326 647.94995 617.37695 651.53516 C 618.68069 655.12035 622.91752 656.91406 630.08789 656.91406 C 645.08053 639.96582 653.71653 623.50557 655.99805 607.53516 C 658.27956 591.56474 660.72466 565.65283 663.33203 529.80078 C 676.36917 467.22279 683.54007 416.05218 684.84375 376.28906 C 671.42114 331.34439 655.51251 285.88999 640.18945 241.07031 C 630.53567 201.48998 600.09412 190.00003 586.85938 188.76562 C 547.22856 185.0693 526.00833 179.53472 523.27344 171.33008 C 520.53854 163.12544 518.48854 153.89645 517.12109 143.64062 C 529.42804 138.17084 541.56418 128.25657 553.5293 113.89844 C 565.49438 99.540289 570.79312 80.395031 569.42578 56.464844 C 568.74204 29.799726 556.77578 13.050087 533.5293 6.2128906 C 521.90604 2.7942924 509.94174 0.7857556 497.63477 0.1875 z M 485.07031 15.955078 C 494.30054 16.126004 504.47158 17.492701 515.58203 20.056641 C 537.80294 25.184556 549.5974 38.005951 550.96484 58.517578 C 552.33229 79.712909 545.83669 97.831194 531.47852 112.87305 C 517.12042 127.91489 507.88945 132.35853 503.78711 126.20508 C 498.31736 120.05158 501.39434 110.47897 513.01758 97.488281 C 535.48825 72.374075 522.35244 37.510239 481.22461 59.542969 C 473.70368 52.705772 456.95404 47.918487 430.97266 45.183594 C 435.7587 32.192906 445.50117 23.475424 460.20117 19.03125 C 467.55118 16.809163 475.84008 15.784152 485.07031 15.955078 z M 425.84375 56.464844 C 446.35537 56.464844 463.44865 61.252129 477.12305 70.824219 C 477.12305 78.345119 480.20002 78.345119 486.35352 70.824219 C 498.73909 55.686286 518.55888 62.819037 509.94141 83.644531 C 505.83907 93.558455 500.19856 101.93233 493.01953 108.76953 C 485.84046 115.60672 484.4738 122.27416 488.91797 128.76953 C 493.36214 135.26489 496.26732 141.24705 497.63477 146.7168 C 501.73707 186.37257 517.46169 206.20117 544.81055 206.20117 C 572.15933 206.20117 575.74011 234.12202 559.20117 284.56055 C 539.62784 344.25301 535.77045 360.69936 539.00977 416.74805 C 503.902 431.37626 463.97506 440.64398 445.01953 443.24414 C 442.17476 365.44791 435.35535 301.38943 424.30469 275.93945 C 413.02332 249.95808 404.64944 231.83978 399.17969 221.58398 C 393.7099 211.32815 403.2806 206.20117 427.89453 206.20117 C 453.19216 206.20117 464.64498 196.28687 462.25195 176.45898 C 459.85897 156.6311 450.7998 148.76879 435.07422 152.87109 C 419.34868 156.97343 412.51135 152.18611 414.5625 138.51172 C 424.13459 132.35823 427.38145 128.25622 424.30469 126.20508 C 421.22796 124.15388 415.58745 122.78722 407.38281 122.10352 C 408.06651 118.00118 404.3062 114.58256 396.10156 111.84766 C 402.25506 94.070948 408.7507 81.421329 415.58789 73.900391 C 423.10883 70.481792 430.80129 70.481792 438.66406 73.900391 C 446.52687 77.318989 454.56104 79.712631 462.76562 81.080078 L 462.76562 74.925781 C 457.29591 74.925781 450.62846 73.045588 442.76562 69.285156 C 434.90281 65.524687 426.86867 65.354836 418.66406 68.773438 C 421.39892 63.303651 423.7926 59.1997 425.84375 56.464844 z M 501.34375 66.248047 C 489.11128 66.392007 477.12504 85.701339 480.19922 93.386719 C 473.91959 97.154481 470.46712 105.78955 478.66211 108.76953 C 486.75206 111.71137 503.10611 92.626207 506.35156 81.591797 C 507.12289 78.96931 510.43321 66.141095 501.34375 66.248047 z M 499.81445 73.003906 C 501.60922 73.089366 502.42094 74.242757 502.25 76.464844 C 501.90817 80.909054 500.02796 85.182853 496.60938 89.285156 C 493.19074 93.387496 490.11377 96.292672 487.37891 98.001953 C 484.64401 99.711268 484.64401 98.514447 487.37891 94.412109 C 490.11377 90.309806 490.11377 88.9431 487.37891 90.310547 C 484.64401 91.677956 483.96068 90.481135 485.32812 86.720703 C 486.81162 82.641152 491.33545 72.600176 499.81445 73.003906 z M 429.16016 75.503906 C 425.66678 75.375712 422.50979 76.207186 419.68945 78.001953 L 413.53711 84.15625 L 413.53711 90.310547 L 416.61328 88.257812 C 426.18533 93.727564 436.78301 93.727565 448.40625 88.257812 L 460.71289 89.285156 L 459.6875 84.15625 L 449.43164 84.15625 C 441.73977 78.601033 434.98246 75.717564 429.16016 75.503906 z M 425.84375 80.054688 C 424.47634 82.105839 424.81799 84.497565 426.86914 87.232422 C 424.13425 86.548717 421.74061 85.523697 419.68945 84.15625 C 420.37316 82.105099 422.42515 80.738392 425.84375 80.054688 z M 435.07422 81.080078 L 445.33008 86.207031 C 441.22777 86.890737 437.46742 87.574071 434.04883 88.257812 C 436.78368 85.52292 437.12537 83.131229 435.07422 81.080078 z M 479.17383 98.513672 C 483.27613 101.24856 484.30115 103.30052 482.25 104.66797 C 480.19885 106.03538 478.66038 105.86358 477.63477 104.1543 C 476.60919 102.44498 477.12264 100.56482 479.17383 98.513672 z M 416.30664 109.11719 C 415.454 109.14849 414.72919 110.4598 415.07617 111.84766 C 415.6385 114.09714 412.80922 117.53783 408.92188 112.87305 C 403.21278 106.02213 402.36054 112.05696 403.28125 113.89844 C 404.6487 112.53098 406.35706 113.21432 408.4082 115.94922 C 412.90167 121.94042 418.78553 116.79154 418.15234 112.35938 C 417.80733 109.94437 417.01311 109.09128 416.30664 109.11719 z M 407.38281 125.17969 C 411.56278 125.07602 417.11662 125.75841 420.7168 127.23047 L 405.33203 128.25586 C 401.00257 126.81272 403.39508 125.2786 407.38281 125.17969 z M 419.68945 129.28125 C 417.36196 133.35289 412.59243 133.82136 408.4082 134.41016 C 403.72517 135.10542 403.78522 132.91689 406.35742 131.33398 L 419.68945 129.28125 z M 6.4472656 226.8125 C 27.281592 226.7486 48.060716 230.60498 65.378906 237.8125 L 22.1875 281.47266 L 65.378906 325.13477 C 48.113287 332.32071 27.4081 336.17367 6.6367188 336.13281 C -19.773483 336.08071 -91.730464 331.3615 -91.730469 281.47266 C -91.730469 231.81745 -20.527049 226.89523 6.4472656 226.8125 z M 551.30859 441.88672 C 565.23152 459.2904 569.09013 494.74994 564.83594 546.96094 L 572.98828 657.11133 L 385.68555 671.61523 L 440.2168 474.95312 L 551.30859 441.88672 z M 136.73828 795.66211 C 161.03779 795.66211 182.03401 814.98176 186.83984 841.75391 L 86.636719 841.75391 C 91.442559 814.98176 112.43877 795.66211 136.73828 795.66211 z " />
</svg>
